X:6
T:Waltz of the Toys
R:waltz
C:Michel Faubert, Canada
Z:id:hn-waltz-6
M:3/4
K:D
fe fg fe|dB AF D2|fe fg fe|dB AF D2|e2 ef ed|c3 d cB|A^G AB cA|dB AF D2|
fe fg fe|dB AF D2|fe fg fe|dB AF D2|e2 ef ed|c3 d cB|AB AG FE|1 D3 F Ad:|2 D3 d dc||
dA FA dA|B3 d dB|cA Bc de|f3 f df|bf df bf|g3 e ed|ce Ac ae|f3 d dc|
BF FB BF|G3 e ed|cB AG FE|F4 F2|GF GA Bc|de f2 d2|ge cA Bc|1 d3 d dc:|2 d3 F Ad||

